src/assets/images/settingsIcon.svg

<svg width="63" height="63" viewBox="0 0 63 63" fill="none" xmlns="http://www.w3.org/2000/svg">
<path d="M36.1635 55.3711H28.7351C28.2792 55.3712 27.8394 55.2026 27.5004 54.8977C27.1614 54.5928 26.9473 54.1732 26.8993 53.7198L26.3493 48.5408C25.5814 48.2795 24.8313 47.9687 24.1037 47.6105L20.0567 50.8836C19.7024 51.1689 19.2554 51.3133 18.8012 51.2892C18.3471 51.2652 17.9178 51.0743 17.5957 50.7531L12.3428 45.5003C12.0217 45.1782 11.8308 44.7489 11.8067 44.2948C11.7827 43.8406 11.9271 43.3935 12.2124 43.0393L15.4867 38.9874C15.1279 38.2598 14.8167 37.5097 14.5552 36.7418L9.36757 36.1881C8.91439 36.1401 8.49499 35.9261 8.19013 35.5874C7.88526 35.2487 7.71648 34.8092 7.71628 34.3535V26.9239C7.71648 26.4682 7.88526 26.0287 8.19013 25.6899C8.49499 25.3512 8.91439 25.1373 9.36757 25.0893L14.5466 24.5392C14.8081 23.7713 15.1193 23.0212 15.4781 22.2936L12.2038 18.2417C11.9185 17.8875 11.7741 17.4404 11.7981 16.9863C11.8222 16.5321 12.0131 16.1028 12.3342 15.7808L17.5871 10.5279C17.9092 10.2068 18.3384 10.0159 18.7926 9.9918C19.2468 9.96773 19.6938 10.1122 20.048 10.3975L24.1 13.6705C24.8277 13.3123 25.5778 13.0016 26.3456 12.7403L26.8956 7.56123C26.9428 7.10655 27.1571 6.68557 27.497 6.37982C27.8368 6.07408 28.278 5.90533 28.7351 5.90625H36.1635C36.6194 5.90615 37.0592 6.07479 37.3982 6.37969C37.7372 6.68459 37.9513 7.10416 37.9993 7.55754L38.5481 12.7366C39.3164 12.9979 40.0669 13.3086 40.795 13.6668L44.8457 10.3938C45.1999 10.1085 45.6469 9.96403 46.1011 9.98811C46.5553 10.0122 46.9846 10.2031 47.3066 10.5242L52.5595 15.7771C52.8806 16.0991 53.0715 16.5284 53.0956 16.9826C53.1197 17.4367 52.9752 17.8838 52.6899 18.238L49.4156 22.2899C49.7739 23.0177 50.0851 23.7678 50.3471 24.5355L55.5261 25.0856C55.9791 25.1339 56.3982 25.3479 56.7028 25.6866C57.0074 26.0253 57.176 26.4647 57.1762 26.9202V34.3498C57.1771 34.8052 57.0096 35.2448 56.7059 35.5842C56.4022 35.9235 55.9838 36.1386 55.5311 36.1881L50.352 36.7381C50.09 37.5058 49.7789 38.2559 49.4206 38.9837L52.6948 43.0356C52.9801 43.3899 53.1246 43.8369 53.1005 44.2911C53.0764 44.7452 52.8855 45.1745 52.5644 45.4966L47.3115 50.7531C46.9895 51.0743 46.5602 51.2652 46.106 51.2892C45.6519 51.3133 45.2048 51.1689 44.8506 50.8836L40.7999 47.6105C40.0718 47.9687 39.3213 48.2795 38.5531 48.5408L38.0043 53.7198C37.9562 54.174 37.7413 54.5943 37.4013 54.8993C37.0613 55.2043 36.6203 55.3724 36.1635 55.3711ZM30.3926 51.6797H34.5011L35.0044 46.935C35.0439 46.5636 35.1951 46.213 35.4381 45.9293C35.6811 45.6457 36.0044 45.4425 36.3653 45.3465C37.6653 44.9998 38.9134 44.4813 40.0764 43.8047C40.4002 43.616 40.7738 43.5304 41.1474 43.5592C41.5211 43.588 41.8771 43.7298 42.1682 43.9659L45.8793 46.9645L48.7844 44.0594L45.7808 40.3594C45.5448 40.0683 45.4029 39.7123 45.3741 39.3386C45.3453 38.965 45.431 38.5914 45.6196 38.2676C46.2948 37.1053 46.8117 35.8581 47.1565 34.5589C47.2526 34.1978 47.456 33.8744 47.7399 33.6314C48.0237 33.3884 48.3747 33.2373 48.7463 33.198L53.4897 32.6936V28.585L48.7463 28.0805C48.3747 28.0413 48.0237 27.8902 47.7399 27.6472C47.456 27.4042 47.2526 27.0807 47.1565 26.7196C46.8118 25.4201 46.2949 24.1724 45.6196 23.0098C45.431 22.686 45.3453 22.3124 45.3741 21.9387C45.4029 21.5651 45.5448 21.209 45.7808 20.918L48.7795 17.2069L45.8743 14.3017L42.1633 17.3004C41.8722 17.5365 41.5161 17.6783 41.1425 17.7071C40.7688 17.7359 40.3953 17.6503 40.0715 17.4616C38.909 16.7869 37.6618 16.2701 36.3628 15.9247C36.0019 15.8287 35.6786 15.6255 35.4356 15.3419C35.1926 15.0582 35.0414 14.7076 35.0019 14.3362L34.5036 9.59766H30.3926L29.8893 14.3423C29.8498 14.7139 29.6984 15.0647 29.4551 15.3483C29.2119 15.6319 28.8883 15.8351 28.5272 15.9309C27.2292 16.2778 25.9832 16.7963 24.8223 17.4727C24.4984 17.6613 24.1249 17.747 23.7512 17.7182C23.3776 17.6894 23.0215 17.5475 22.7305 17.3115L19.0231 14.3079L16.1192 17.213L19.119 20.9241C19.3549 21.2153 19.4965 21.5714 19.5251 21.9451C19.5537 22.3187 19.4678 22.6922 19.279 23.0159C18.6048 24.1787 18.088 25.4258 17.7421 26.7246C17.6461 27.0855 17.4429 27.4088 17.1593 27.6518C16.8756 27.8947 16.525 28.046 16.1536 28.0855L11.4089 28.5899V32.6973L16.1536 33.2017C16.525 33.2412 16.8756 33.3925 17.1593 33.6354C17.4429 33.8784 17.6461 34.2017 17.7421 34.5626C18.088 35.8601 18.6043 37.1059 19.2778 38.2676C19.4666 38.5913 19.5525 38.9648 19.5239 39.3384C19.4953 39.7121 19.3537 40.0682 19.1178 40.3594L16.1192 44.0643L19.0243 46.9695L22.7366 43.9708C23.0277 43.7347 23.3837 43.5929 23.7574 43.5641C24.131 43.5353 24.5046 43.6209 24.8284 43.8096C25.9904 44.4845 27.2372 45.0013 28.5358 45.3465C28.897 45.4423 29.2205 45.6454 29.4637 45.929C29.707 46.2127 29.8584 46.5635 29.8979 46.935L30.3926 51.6797Z" fill="#808080"/>
<path d="M32.4487 41.8802C30.2254 41.88 28.0521 41.2205 26.2036 39.9851C24.3551 38.7497 22.9144 36.9939 22.0637 34.9398C21.2131 32.8856 20.9906 30.6254 21.4245 28.4448C21.8584 26.2642 22.9292 24.2613 24.5014 22.6892C26.0736 21.1172 28.0767 20.0467 30.2573 19.613C32.4379 19.1794 34.6981 19.402 36.7522 20.2529C38.8062 21.1038 40.5619 22.5447 41.797 24.3933C43.0322 26.242 43.6915 28.4153 43.6915 30.6387C43.6882 33.6193 42.5027 36.4769 40.3949 38.5845C38.2871 40.692 35.4294 41.8773 32.4487 41.8802ZM32.4487 23.0885C30.9555 23.0887 29.4959 23.5318 28.2544 24.3615C27.013 25.1913 26.0454 26.3706 25.4742 27.7502C24.9029 29.1298 24.7535 30.6479 25.045 32.1124C25.3365 33.5769 26.0557 34.9221 27.1116 35.9779C28.1676 37.0336 29.5129 37.7526 30.9774 38.0438C32.442 38.3351 33.96 38.1855 35.3395 37.614C36.7191 37.0425 37.8982 36.0748 38.7278 34.8332C39.5573 33.5916 40.0001 32.1319 40.0001 30.6387C39.9978 28.6367 39.2015 26.7174 37.7858 25.302C36.3701 23.8865 34.4507 23.0905 32.4487 23.0885Z" fill="#808080"/>
</svg>

<svg width="63" height="63" fill="none" xmlns="http://www.w3.org/2000/svg"><path d="M36.163 55.371h-7.428A1.846 1.846 0 0 1 26.9 53.72l-.55-5.18a18.785 18.785 0 0 1-2.245-.93l-4.047 3.274a1.846 1.846 0 0 1-2.461-.13L12.343 45.5a1.846 1.846 0 0 1-.13-2.46l3.274-4.053a18.727 18.727 0 0 1-.932-2.245l-5.187-.554a1.846 1.846 0 0 1-1.652-1.835v-7.43a1.846 1.846 0 0 1 1.652-1.834l5.179-.55c.261-.768.572-1.518.931-2.245l-3.274-4.052a1.846 1.846 0 0 1 .13-2.461l5.253-5.253a1.846 1.846 0 0 1 2.461-.13L24.1 13.67a18.799 18.799 0 0 1 2.246-.93l.55-5.18a1.845 1.845 0 0 1 1.84-1.655h7.427A1.846 1.846 0 0 1 38 7.558l.55 5.179a18.81 18.81 0 0 1 2.246.93l4.05-3.273a1.845 1.845 0 0 1 2.462.13l5.252 5.253a1.846 1.846 0 0 1 .13 2.461l-3.273 4.052c.358.728.67 1.478.931 2.245l5.18.55a1.846 1.846 0 0 1 1.65 1.835v7.43a1.846 1.846 0 0 1-1.646 1.838l-5.179.55a18.92 18.92 0 0 1-.931 2.246l3.274 4.052a1.846 1.846 0 0 1-.13 2.46l-5.253 5.257a1.845 1.845 0 0 1-2.461.13L40.8 47.61c-.728.359-1.479.67-2.247.93l-.549 5.18a1.846 1.846 0 0 1-1.84 1.651zm-5.77-3.691H34.5l.503-4.745a1.846 1.846 0 0 1 1.361-1.589c1.3-.346 2.548-.865 3.711-1.541a1.845 1.845 0 0 1 2.092.16l3.711 3 2.905-2.906-3.003-3.7a1.846 1.846 0 0 1-.161-2.091 15.088 15.088 0 0 0 1.537-3.71 1.846 1.846 0 0 1 1.59-1.36l4.743-.504v-4.109l-4.744-.505a1.845 1.845 0 0 1-1.59-1.36 15.088 15.088 0 0 0-1.536-3.71 1.846 1.846 0 0 1 .16-2.092l3-3.711-2.906-2.905-3.71 2.998a1.846 1.846 0 0 1-2.093.162 15.137 15.137 0 0 0-3.708-1.537 1.846 1.846 0 0 1-1.361-1.589l-.498-4.738h-4.111l-.504 4.744a1.844 1.844 0 0 1-1.362 1.589 15.108 15.108 0 0 0-3.705 1.542 1.847 1.847 0 0 1-2.091-.162l-3.708-3.003-2.904 2.905 3 3.711a1.846 1.846 0 0 1 .16 2.092 15.184 15.184 0 0 0-1.537 3.709 1.846 1.846 0 0 1-1.588 1.36l-4.745.505v4.107l4.745.505a1.847 1.847 0 0 1 1.588 1.36 15.186 15.186 0 0 0 1.536 3.706 1.846 1.846 0 0 1-.16 2.091l-2.999 3.705 2.905 2.905 3.713-2.998a1.845 1.845 0 0 1 2.091-.161 15.111 15.111 0 0 0 3.708 1.536 1.846 1.846 0 0 1 1.362 1.589l.495 4.745z" fill="gray"/><path d="M32.449 41.88A11.241 11.241 0 1 1 43.69 30.64 11.254 11.254 0 0 1 32.45 41.88zm0-18.792A7.55 7.55 0 1 0 40 30.639a7.559 7.559 0 0 0-7.551-7.55z" fill="gray"/></svg>
